!!!COM: Music21
!!!OTL: mazurka_Bog-Braon
!!!OMV: mazurka_Bog-Braon
**kern
*clefG2
*k[f#c#]
*D:
*M3/4
=1
8.dL
16eJk
=
2f#
8.aL
16f#Jk
=
2g
8.aL
16gJk
=
2f#
4a
=
8.f#L
16eJk
4e
8.dL
16eJk
=
4.f#
8f#
8.aL
16f#Jk
=
2g
4a
=
2f#
4d
=
8.eL
16dJk
2d
=||
4dd
2f#
!!linebreak:original
=
4a
2f#
=
4dd
4.f#
8a
=
8.f#L
16eJk
2e
=
4dd
4f#
12eL
12f#
12aJ
=
4b
4.a
8f#
=
2d
4d
=
8.eL
16dJk
4d
8.dL
16eJk
=||
8f#
8r
4f#
8.aL
16f#Jk
!!linebreak:original
=
8g
8r
4g
8.aL
16gJk
=
8f#
8r
4f#
4a
=
8.f#L
16eJk
4e
8.dL
16eJk
=
8f#
8r
4f#
8.aL
16f#Jk
=
8g
8r
4g
4a
=
2f#
16eKL
8.dJ
=
8.eL
16dJk
2d
=||
4dd
2f#
!!linebreak:original
=
4a
2f#
=
4dd
4.f#
8a
=
8.f#L
16eJk
2e
=
4dd
4f#
12eL
12f#
12aJ
=
4b
4.a
8f#
=
2d
4d
=
8.eL
16dJk
2d
=||
*-
